X:1
T:Lake District, 86.86.86 D
T:Lake District, 86.86.86 D
T:Adam Geibel, 1901
T:Public Domain Courtesy of the Cyber Hymnal™
C:Adam Geibel, 1901
Z:Public Domain
Z:Courtesy of the Cyber Hymnal™
%%score ( 1 2 ) ( 3 4 )
L:1/8
Q:1/4=103
M:6/8
K:C
V:1 treble 
V:2 treble 
V:3 bass 
V:4 bass 
V:1
 [EG] | [EG]2 [EA] [EB]2 [Ec] | [Fc]2 [FB] [FB]2 [Fc] | [FB]2 [B,D] [DF]2 [FA] | [EG]4 z [EG] | %5
 [EG]2 [EA] [EB]2 [Ec] | [Dc]2 [DB] [DB]2 [Ec] | [DB]2 [CD] [C^F]2 [CA] | [B,G]4 z G | %9
 [Fe]2 [Fd] [FB]2 [FG] | [EA]2 [EB] [EA]2 [EG] | [D^F]2 [FA] [Fe]2 [Fd] | (d3 G) z [FG] | %13
 [EG]2 [Ec] [Ed]2 [Ec] | [Dc]2 [CD] !fermata![CD]2 A | c2"^riten." A [DF]2 [CE] | %16
 (D3 !fermata!G) z G | [CE]2 [CG] [CA]2 [CG] | [B,F]2 [B,G] [B,A]2 [B,G] | %19
 [B,F]2 [B,G] [Gf]2 [Gf] | ([Af]3 [Ge]) z [Ge] | [Ge]2 [Ge] [Af]2 [Ge] | [^Fd]2 [FA] [FB]2 [Fc] | %23
 [Fe]2 [Fd] [FB]2 [FG] | [Ec]3- [Ec]2 |] %25
V:2
 x | x6 | x6 | x6 | x6 | x6 | x6 | x6 | x5 G | x6 | x6 | x6 | F4 x2 | x6 | x5 A | c2 A x3 | %16
 B,4 G x | x6 | x6 | x6 | x6 | x6 | x6 | x6 | x5 |] %25
V:3
 [C,G,] | [C,G,]2 [C,G,] [C,G,]2 [C,G,] | [D,G,]2 [D,G,] [D,G,]2 [D,G,] | %3
 [G,,G,]2 [G,,G,] [G,,G,]2 [G,,G,] | [C,G,]4 z [C,G,] | [C,G,]2 [C,G,] [C,G,]2 [C,G,] | %6
 [D,G,]2 [D,G,] [D,G,]2 [D,G,] | [D,^F,]2 [D,F,] [D,A,]2 [D,F,] | [G,,G,]4 z G, | %9
 [G,B,]2 [G,B,] [G,D]2 [G,B,] | [C,C]2 [C,C] [C,C]2 [C,C] | [D,C]2 [D,C] [D,C]2 [D,C] | %12
 [G,B,]4 z [G,B,] | [C,C]2 [C,C] [C,C]2 [C,G,] | [F,A,]2 [F,A,] !fermata![F,A,]2 A, | %15
 C2 A, [F,A,]2 [^F,A,] | !fermata!G,4 z [G,,G,] | [C,G,]2 [G,,E,] [C,E,]2 [G,,E,] | %18
 [D,G,]2 [G,,F,] [D,F,]2 [G,,F,] | [D,G,]2 [G,,G,] [G,B,]2 [B,D] | z3 z [C,C] x | %21
 [A,^C]2 [A,C] [A,C]2 [A,C] | [D,C]2 [D,C] [D,B,]2 [D,A,] | [G,B,]2 [G,B,] [G,D]2 [G,B,] | %24
 [C,C]3- [C,C]2 |] %25
V:4
 x | x6 | x6 | x6 | x6 | x6 | x6 | x6 | x5 G, | x6 | x6 | x6 | x6 | x6 | x5 A, | C2 A, x3 | %16
 G,4 x2 | x6 | x6 | x6 | C4 C, x | x6 | x6 | x6 | x5 |] %25

